svg/u1fa79.svg

<svg viewBox="0 0 128 128" xmlns="http://www.w3.org/2000/svg">
  <g>
    <path d="M115.58,12.85l-0.51-0.51c0,0-0.01-0.01-0.01-0.01c-9.36-9.35-24.52-9.34-33.87,0.01L13.74,79.78 c0,0,0,0-0.01,0.01C3.6,89.92,3.61,106.35,13.74,116.47l0.51,0.51c9.35,9.35,24.52,9.35,33.87,0l67.44-67.44c0,0,0,0,0.01-0.01 C125.71,39.41,125.71,22.98,115.58,12.85z M21.37,102.74c-1.03,1.03-2.7,1.03-3.72,0c-1.03-1.03-1.03-2.7,0-3.72 c1.03-1.03,2.7-1.03,3.72,0C22.39,100.04,22.39,101.71,21.37,102.74z M23,91.98c-1.03,1.03-2.7,1.03-3.72,0 c-1.03-1.03-1.03-2.7,0-3.72c1.03-1.03,2.7-1.03,3.72,0C24.03,89.29,24.03,90.95,23,91.98z M30.29,111.68 c-1.03,1.03-2.7,1.03-3.72,0c-1.03-1.03-1.03-2.7,0-3.72c1.03-1.03,2.7-1.03,3.72,0C31.32,108.98,31.32,110.65,30.29,111.68z M32.34,101.32c-1.03,1.03-2.7,1.03-3.72,0c-1.03-1.03-1.03-2.7,0-3.72c1.03-1.03,2.7-1.03,3.72,0 C33.37,98.62,33.37,100.29,32.34,101.32z M33.76,90.34c-1.03,1.03-2.7,1.03-3.72,0c-1.03-1.03-1.03-2.7,0-3.72 c1.03-1.03,2.7-1.03,3.72,0C34.79,87.64,34.79,89.31,33.76,90.34z M35.4,79.58c-1.03,1.03-2.7,1.03-3.72,0 c-1.03-1.03-1.03-2.7,0-3.72c1.03-1.03,2.7-1.03,3.72,0C36.43,76.89,36.43,78.56,35.4,79.58z M41.05,110.03 c-1.03,1.03-2.7,1.03-3.72,0c-1.03-1.03-1.03-2.7,0-3.72c1.03-1.03,2.7-1.03,3.72,0C42.08,107.34,42.08,109.01,41.05,110.03z M42.69,99.28c-1.03,1.03-2.7,1.03-3.72,0c-1.03-1.03-1.03-2.7,0-3.72c1.03-1.03,2.7-1.03,3.72,0 C43.72,96.58,43.72,98.25,42.69,99.28z M44.73,88.91c-1.03,1.03-2.7,1.03-3.72,0c-1.03-1.03-1.03-2.7,0-3.72 c1.03-1.03,2.7-1.03,3.72,0C45.76,86.22,45.76,87.88,44.73,88.91z M53.46,97.64c-1.03,1.03-2.7,1.03-3.72,0 c-1.03-1.03-1.03-2.7,0-3.72c1.03-1.03,2.7-1.03,3.72,0C54.49,94.94,54.49,96.61,53.46,97.64z M79.58,35.4 c-1.03,1.03-2.7,1.03-3.72,0c-1.03-1.03-1.03-2.7,0-3.72c1.03-1.03,2.7-1.03,3.72,0C80.61,32.71,80.61,34.37,79.58,35.4z M88.31,44.13c-1.03,1.03-2.7,1.03-3.72,0c-1.03-1.03-1.03-2.7,0-3.72c1.03-1.03,2.7-1.03,3.72,0 C89.34,41.43,89.34,43.1,88.31,44.13z M90.34,33.76c-1.03,1.03-2.7,1.03-3.72,0c-1.03-1.03-1.03-2.7,0-3.72 c1.03-1.03,2.7-1.03,3.72,0C91.37,31.06,91.37,32.73,90.34,33.76z M91.98,23c-1.03,1.03-2.7,1.03-3.72,0 c-1.03-1.03-1.03-2.7,0-3.72c1.03-1.03,2.7-1.03,3.72,0C93.01,20.31,93.01,21.98,91.98,23z M97.64,53.45 c-1.03,1.03-2.7,1.03-3.72,0c-1.03-1.03-1.03-2.7,0-3.72c1.03-1.03,2.7-1.03,3.72,0C98.67,50.76,98.67,52.43,97.64,53.45z M99.28,42.7c-1.03,1.03-2.7,1.03-3.72,0c-1.03-1.03-1.03-2.7,0-3.72c1.03-1.03,2.7-1.03,3.72,0 C100.31,40.01,100.31,41.67,99.28,42.7z M100.7,31.72c-1.03,1.03-2.7,1.03-3.72,0c-1.03-1.03-1.03-2.7,0-3.72 c1.03-1.03,2.7-1.03,3.72,0C101.73,29.03,101.73,30.69,100.7,31.72z M102.74,21.36c-1.03,1.03-2.7,1.03-3.72,0 c-1.03-1.03-1.03-2.7,0-3.72c1.03-1.03,2.7-1.03,3.72,0C103.77,18.67,103.77,20.33,102.74,21.36z M110.04,41.06 c-1.03,1.03-2.7,1.03-3.72,0c-1.03-1.03-1.03-2.7,0-3.72c1.03-1.03,2.7-1.03,3.72,0C111.07,38.36,111.07,40.03,110.04,41.06z M111.68,30.3c-1.03,1.03-2.7,1.03-3.72,0c-1.03-1.03-1.03-2.7,0-3.72c1.03-1.03,2.7-1.03,3.72,0 C112.71,27.61,112.71,29.27,111.68,30.3z" fill="#99674F"/>
    <path d="M114.26,11.54l-0.51-0.51c0,0-0.01-0.01-0.01-0.01c-9.36-9.35-24.52-9.34-33.87,0.01L12.42,78.46 c0,0,0,0-0.01,0.01C2.29,88.6,2.29,105.03,12.43,115.15l0.51,0.51c9.35,9.35,24.52,9.35,33.87,0l67.44-67.44c0,0,0,0,0.01-0.01 C124.39,38.09,124.39,21.67,114.26,11.54z M20.05,101.42c-1.03,1.03-2.7,1.03-3.72,0c-1.03-1.03-1.03-2.7,0-3.72 c1.03-1.03,2.7-1.03,3.72,0C21.08,98.72,21.08,100.39,20.05,101.42z M21.69,90.66c-1.03,1.03-2.7,1.03-3.72,0 c-1.03-1.03-1.03-2.7,0-3.72c1.03-1.03,2.7-1.03,3.72,0C22.71,87.97,22.71,89.64,21.69,90.66z M28.97,110.36 c-1.03,1.03-2.7,1.03-3.72,0c-1.03-1.03-1.03-2.7,0-3.72c1.03-1.03,2.7-1.03,3.72,0C30,107.67,30,109.33,28.97,110.36z M31.02,100 c-1.03,1.03-2.7,1.03-3.72,0c-1.03-1.03-1.03-2.7,0-3.72c1.03-1.03,2.7-1.03,3.72,0C32.05,97.31,32.05,98.97,31.02,100z M32.45,89.02c-1.03,1.03-2.7,1.03-3.72,0c-1.03-1.03-1.03-2.7,0-3.72c1.03-1.03,2.7-1.03,3.72,0 C33.48,86.33,33.48,87.99,32.45,89.02z M34.09,78.27c-1.03,1.03-2.7,1.03-3.72,0c-1.03-1.03-1.03-2.7,0-3.72 c1.03-1.03,2.7-1.03,3.72,0C35.11,75.57,35.11,77.24,34.09,78.27z M39.73,108.72c-1.03,1.03-2.7,1.03-3.72,0 c-1.03-1.03-1.03-2.7,0-3.72c1.03-1.03,2.7-1.03,3.72,0C40.76,106.02,40.76,107.69,39.73,108.72z M41.37,97.96 c-1.03,1.03-2.7,1.03-3.72,0c-1.03-1.03-1.03-2.7,0-3.72c1.03-1.03,2.7-1.03,3.72,0C42.4,95.27,42.4,96.93,41.37,97.96z M43.41,87.6c-1.03,1.03-2.7,1.03-3.72,0c-1.03-1.03-1.03-2.7,0-3.72c1.03-1.03,2.7-1.03,3.72,0C44.44,84.9,44.44,86.57,43.41,87.6 z M52.14,96.32c-1.03,1.03-2.7,1.03-3.72,0c-1.03-1.03-1.03-2.7,0-3.72c1.03-1.03,2.7-1.03,3.72,0 C53.17,93.62,53.17,95.29,52.14,96.32z M78.27,34.09c-1.03,1.03-2.7,1.03-3.72,0c-1.03-1.03-1.03-2.7,0-3.72 c1.03-1.03,2.7-1.03,3.72,0C79.29,31.39,79.29,33.06,78.27,34.09z M87,42.81c-1.03,1.03-2.7,1.03-3.72,0 c-1.03-1.03-1.03-2.7,0-3.72c1.03-1.03,2.7-1.03,3.72,0C88.02,40.11,88.02,41.78,87,42.81z M89.03,32.44 c-1.03,1.03-2.7,1.03-3.72,0c-1.03-1.03-1.03-2.7,0-3.72c1.03-1.03,2.7-1.03,3.72,0C90.05,29.75,90.05,31.41,89.03,32.44z M90.66,21.69c-1.03,1.03-2.7,1.03-3.72,0c-1.03-1.03-1.03-2.7,0-3.72c1.03-1.03,2.7-1.03,3.72,0 C91.69,18.99,91.69,20.66,90.66,21.69z M96.32,52.14c-1.03,1.03-2.7,1.03-3.72,0c-1.03-1.03-1.03-2.7,0-3.72 c1.03-1.03,2.7-1.03,3.72,0C97.35,49.44,97.35,51.11,96.32,52.14z M97.96,41.38c-1.03,1.03-2.7,1.03-3.72,0 c-1.03-1.03-1.03-2.7,0-3.72c1.03-1.03,2.7-1.03,3.72,0C98.99,38.69,98.99,40.36,97.96,41.38z M99.39,30.4 c-1.03,1.03-2.7,1.03-3.72,0c-1.03-1.03-1.03-2.7,0-3.72c1.03-1.03,2.7-1.03,3.72,0C100.41,27.71,100.41,29.38,99.39,30.4z M101.42,20.04c-1.03,1.03-2.7,1.03-3.72,0c-1.03-1.03-1.03-2.7,0-3.72c1.03-1.03,2.7-1.03,3.72,0 C102.45,17.35,102.45,19.02,101.42,20.04z M108.72,39.74c-1.03,1.03-2.7,1.03-3.72,0c-1.03-1.03-1.03-2.7,0-3.72 c1.03-1.03,2.7-1.03,3.72,0C109.75,37.04,109.75,38.71,108.72,39.74z M110.36,28.99c-1.03,1.03-2.7,1.03-3.72,0 c-1.03-1.03-1.03-2.7,0-3.72c1.03-1.03,2.7-1.03,3.72,0C111.39,26.29,111.39,27.96,110.36,28.99z" fill="#DB9F70"/>
    <path d="M87.15,66.04c2.11-2.32,1.73-2.95-2.18-2.7c-3.23,0.2-5.3,2.27-6.58,3.55L64.32,80.95 c-1.25,1.25-3.27,1.25-4.52,0c-0.04-0.04-0.08-0.08-0.12-0.12c-2.34-2.34-11.43-11.43-11.43-11.43c-1.28-1.28-2.75-2.96-4.45-3.46 c-1.39-0.41-2.61-1.02-5.19-0.42c-2.22,0.51,1.71,3.84,2.65,4.78c1.52,1.52,13.32,13.32,17.7,17.7c1.68,1.68,4.4,1.68,6.08,0 C65.05,87.99,86.48,66.78,87.15,66.04z" fill="#99674F"/>
    <path d="M87.95,58.87c-0.03-0.09-19.68-19.63-20.23-20.18c-1.68-1.68-4.4-1.68-6.08,0 c-1.95,1.95-20.55,20.38-20.55,20.38s-2.52,2.51,0.12,2.95c2.65,0.44,4.38,0.07,6.31-1.8c4.96-4.8,14.84-14.5,14.84-14.5 c1.25-1.25,3.27-1.25,4.52,0c2.27,2.27,10.09,10,11.72,11.58c2.04,1.98,4.2,3.16,7.11,3.28C89.47,60.74,88.16,59.44,87.95,58.87z" fill="#FCBF90"/>
  </g>
</svg>

<svg viewBox="0 0 128 128" xmlns="http://www.w3.org/2000/svg">
  <defs/>
  <path d="M115.58,12.85 L115.07,12.34 C115.07,12.34 115.06,12.33 115.06,12.33 C105.7,2.98 90.54,2.99 81.19,12.34 L13.74,79.78 C13.74,79.78 13.74,79.78 13.73,79.79 C3.6,89.92 3.61,106.35 13.74,116.47 L14.25,116.98 C23.6,126.33 38.77,126.33 48.12,116.98 L115.56,49.54 C115.56,49.54 115.56,49.54 115.57,49.53 C125.71,39.41 125.71,22.98 115.58,12.85 Z M21.37,102.74 C20.34,103.77 18.67,103.77 17.65,102.74 C16.62,101.71 16.62,100.04 17.65,99.02 C18.68,97.99 20.35,97.99 21.37,99.02 C22.39,100.04 22.39,101.71 21.37,102.74 Z M23,91.98 C21.97,93.01 20.3,93.01 19.28,91.98 C18.25,90.95 18.25,89.28 19.28,88.26 C20.31,87.23 21.98,87.23 23,88.26 C24.03,89.29 24.03,90.95 23,91.98 Z M30.29,111.68 C29.26,112.71 27.59,112.71 26.57,111.68 C25.54,110.65 25.54,108.98 26.57,107.96 C27.6,106.93 29.27,106.93 30.29,107.96 C31.32,108.98 31.32,110.65 30.29,111.68 Z M32.34,101.32 C31.31,102.35 29.64,102.35 28.62,101.32 C27.59,100.29 27.59,98.62 28.62,97.6 C29.65,96.57 31.32,96.57 32.34,97.6 C33.37,98.62 33.37,100.29 32.34,101.32 Z M33.76,90.34 C32.73,91.37 31.06,91.37 30.04,90.34 C29.01,89.31 29.01,87.64 30.04,86.62 C31.07,85.59 32.74,85.59 33.76,86.62 C34.79,87.64 34.79,89.31 33.76,90.34 Z M35.4,79.58 C34.37,80.61 32.7,80.61 31.68,79.58 C30.65,78.55 30.65,76.88 31.68,75.86 C32.71,74.83 34.38,74.83 35.4,75.86 C36.43,76.89 36.43,78.56 35.4,79.58 Z M41.05,110.03 C40.02,111.06 38.35,111.06 37.33,110.03 C36.3,109 36.3,107.33 37.33,106.31 C38.36,105.28 40.03,105.28 41.05,106.31 C42.08,107.34 42.08,109.01 41.05,110.03 Z M42.69,99.28 C41.66,100.31 39.99,100.31 38.97,99.28 C37.94,98.25 37.94,96.58 38.97,95.56 C40,94.53 41.67,94.53 42.69,95.56 C43.72,96.58 43.72,98.25 42.69,99.28 Z M44.73,88.91 C43.7,89.94 42.03,89.94 41.01,88.91 C39.98,87.88 39.98,86.21 41.01,85.19 C42.04,84.16 43.71,84.16 44.73,85.19 C45.76,86.22 45.76,87.88 44.73,88.91 Z M53.46,97.64 C52.43,98.67 50.76,98.67 49.74,97.64 C48.71,96.61 48.71,94.94 49.74,93.92 C50.77,92.89 52.44,92.89 53.46,93.92 C54.49,94.94 54.49,96.61 53.46,97.64 Z M79.58,35.4 C78.55,36.43 76.88,36.43 75.86,35.4 C74.83,34.37 74.83,32.7 75.86,31.68 C76.89,30.65 78.56,30.65 79.58,31.68 C80.61,32.71 80.61,34.37 79.58,35.4 Z M88.31,44.13 C87.28,45.16 85.61,45.16 84.59,44.13 C83.56,43.1 83.56,41.43 84.59,40.41 C85.62,39.38 87.29,39.38 88.31,40.41 C89.34,41.43 89.34,43.1 88.31,44.13 Z M90.34,33.76 C89.31,34.79 87.64,34.79 86.62,33.76 C85.59,32.73 85.59,31.06 86.62,30.04 C87.65,29.01 89.32,29.01 90.34,30.04 C91.37,31.06 91.37,32.73 90.34,33.76 Z M91.98,23 C90.95,24.03 89.28,24.03 88.26,23 C87.23,21.97 87.23,20.3 88.26,19.28 C89.29,18.25 90.96,18.25 91.98,19.28 C93.01,20.31 93.01,21.98 91.98,23 Z M97.64,53.45 C96.61,54.48 94.94,54.48 93.92,53.45 C92.89,52.42 92.89,50.75 93.92,49.73 C94.95,48.7 96.62,48.7 97.64,49.73 C98.67,50.76 98.67,52.43 97.64,53.45 Z M99.28,42.7 C98.25,43.73 96.58,43.73 95.56,42.7 C94.53,41.67 94.53,40 95.56,38.98 C96.59,37.95 98.26,37.95 99.28,38.98 C100.31,40.01 100.31,41.67 99.28,42.7 Z M100.7,31.72 C99.67,32.75 98,32.75 96.98,31.72 C95.95,30.69 95.95,29.02 96.98,28 C98.01,26.97 99.68,26.97 100.7,28 C101.73,29.03 101.73,30.69 100.7,31.72 Z M102.74,21.36 C101.71,22.39 100.04,22.39 99.02,21.36 C97.99,20.33 97.99,18.66 99.02,17.64 C100.05,16.61 101.72,16.61 102.74,17.64 C103.77,18.67 103.77,20.33 102.74,21.36 Z M110.04,41.06 C109.01,42.09 107.34,42.09 106.32,41.06 C105.29,40.03 105.29,38.36 106.32,37.34 C107.35,36.31 109.02,36.31 110.04,37.34 C111.07,38.36 111.07,40.03 110.04,41.06 Z M111.68,30.3 C110.65,31.33 108.98,31.33 107.96,30.3 C106.93,29.27 106.93,27.6 107.96,26.58 C108.99,25.55 110.66,25.55 111.68,26.58 C112.71,27.61 112.71,29.27 111.68,30.3 Z" fill="#99674F"/>
  <path d="M114.26,11.54 L113.75,11.03 C113.75,11.03 113.74,11.02 113.74,11.02 C104.38,1.67 89.22,1.68 79.87,11.03 L12.42,78.46 C12.42,78.46 12.42,78.46 12.41,78.47 C2.29,88.6 2.29,105.03 12.43,115.15 L12.94,115.66 C22.29,125.01 37.46,125.01 46.81,115.66 L114.25,48.22 C114.25,48.22 114.25,48.22 114.26,48.21 C124.39,38.09 124.39,21.67 114.26,11.54 Z M20.05,101.42 C19.02,102.45 17.35,102.45 16.33,101.42 C15.3,100.39 15.3,98.72 16.33,97.7 C17.36,96.67 19.03,96.67 20.05,97.7 C21.08,98.72 21.08,100.39 20.05,101.42 Z M21.69,90.66 C20.66,91.69 18.99,91.69 17.97,90.66 C16.94,89.63 16.94,87.96 17.97,86.94 C19,85.91 20.67,85.91 21.69,86.94 C22.71,87.97 22.71,89.64 21.69,90.66 Z M28.97,110.36 C27.94,111.39 26.27,111.39 25.25,110.36 C24.22,109.33 24.22,107.66 25.25,106.64 C26.28,105.61 27.95,105.61 28.97,106.64 C30,107.67 30,109.33 28.97,110.36 Z M31.02,100 C29.99,101.03 28.32,101.03 27.3,100 C26.27,98.97 26.27,97.3 27.3,96.28 C28.33,95.25 30,95.25 31.02,96.28 C32.05,97.31 32.05,98.97 31.02,100 Z M32.45,89.02 C31.42,90.05 29.75,90.05 28.73,89.02 C27.7,87.99 27.7,86.32 28.73,85.3 C29.76,84.27 31.43,84.27 32.45,85.3 C33.48,86.33 33.48,87.99 32.45,89.02 Z M34.09,78.27 C33.06,79.3 31.39,79.3 30.37,78.27 C29.34,77.24 29.34,75.57 30.37,74.55 C31.4,73.52 33.07,73.52 34.09,74.55 C35.11,75.57 35.11,77.24 34.09,78.27 Z M39.73,108.72 C38.7,109.75 37.03,109.75 36.01,108.72 C34.98,107.69 34.98,106.02 36.01,105 C37.04,103.97 38.71,103.97 39.73,105 C40.76,106.02 40.76,107.69 39.73,108.72 Z M41.37,97.96 C40.34,98.99 38.67,98.99 37.65,97.96 C36.62,96.93 36.62,95.26 37.65,94.24 C38.68,93.21 40.35,93.21 41.37,94.24 C42.4,95.27 42.4,96.93 41.37,97.96 Z M43.41,87.6 C42.38,88.63 40.71,88.63 39.69,87.6 C38.66,86.57 38.66,84.9 39.69,83.88 C40.72,82.85 42.39,82.85 43.41,83.88 C44.44,84.9 44.44,86.57 43.41,87.6 Z M52.14,96.32 C51.11,97.35 49.44,97.35 48.42,96.32 C47.39,95.29 47.39,93.62 48.42,92.6 C49.45,91.57 51.12,91.57 52.14,92.6 C53.17,93.62 53.17,95.29 52.14,96.32 Z M78.27,34.09 C77.24,35.12 75.57,35.12 74.55,34.09 C73.52,33.06 73.52,31.39 74.55,30.37 C75.58,29.34 77.25,29.34 78.27,30.37 C79.29,31.39 79.29,33.06 78.27,34.09 Z M87,42.81 C85.97,43.84 84.3,43.84 83.28,42.81 C82.25,41.78 82.25,40.11 83.28,39.09 C84.31,38.06 85.98,38.06 87,39.09 C88.02,40.11 88.02,41.78 87,42.81 Z M89.03,32.44 C88,33.47 86.33,33.47 85.31,32.44 C84.28,31.41 84.28,29.74 85.31,28.72 C86.34,27.69 88.01,27.69 89.03,28.72 C90.05,29.75 90.05,31.41 89.03,32.44 Z M90.66,21.69 C89.63,22.72 87.96,22.72 86.94,21.69 C85.91,20.66 85.91,18.99 86.94,17.97 C87.97,16.94 89.64,16.94 90.66,17.97 C91.69,18.99 91.69,20.66 90.66,21.69 Z M96.32,52.14 C95.29,53.17 93.62,53.17 92.6,52.14 C91.57,51.11 91.57,49.44 92.6,48.42 C93.63,47.39 95.3,47.39 96.32,48.42 C97.35,49.44 97.35,51.11 96.32,52.14 Z M97.96,41.38 C96.93,42.41 95.26,42.41 94.24,41.38 C93.21,40.35 93.21,38.68 94.24,37.66 C95.27,36.63 96.94,36.63 97.96,37.66 C98.99,38.69 98.99,40.36 97.96,41.38 Z M99.39,30.4 C98.36,31.43 96.69,31.43 95.67,30.4 C94.64,29.37 94.64,27.7 95.67,26.68 C96.7,25.65 98.37,25.65 99.39,26.68 C100.41,27.71 100.41,29.38 99.39,30.4 Z M101.42,20.04 C100.39,21.07 98.72,21.07 97.7,20.04 C96.67,19.01 96.67,17.34 97.7,16.32 C98.73,15.29 100.4,15.29 101.42,16.32 C102.45,17.35 102.45,19.02 101.42,20.04 Z M108.72,39.74 C107.69,40.77 106.02,40.77 105,39.74 C103.97,38.71 103.97,37.04 105,36.02 C106.03,34.99 107.7,34.99 108.72,36.02 C109.75,37.04 109.75,38.71 108.72,39.74 Z M110.36,28.99 C109.33,30.02 107.66,30.02 106.64,28.99 C105.61,27.96 105.61,26.29 106.64,25.27 C107.67,24.24 109.34,24.24 110.36,25.27 C111.39,26.29 111.39,27.96 110.36,28.99 Z" fill="#DB9F70"/>
  <path d="M87.15,66.04 C89.26,63.72 88.88,63.09 84.97,63.34 C81.74,63.54 79.67,65.61 78.39,66.89 L64.32,80.95 C63.07,82.2 61.05,82.2 59.8,80.95 C59.76,80.91 59.72,80.87 59.68,80.83 C57.34,78.49 48.25,69.4 48.25,69.4 C46.97,68.12 45.5,66.44 43.8,65.94 C42.41,65.53 41.19,64.92 38.61,65.52 C36.39,66.03 40.32,69.36 41.26,70.3 C42.78,71.82 54.58,83.62 58.96,88 C60.64,89.68 63.36,89.68 65.04,88 C65.05,87.99 86.48,66.78 87.15,66.04 Z" fill="#99674F"/>
  <path d="M87.95,58.87 C87.92,58.78 68.27,39.24 67.72,38.69 C66.04,37.01 63.32,37.01 61.64,38.69 C59.69,40.64 41.09,59.07 41.09,59.07 C41.09,59.07 38.57,61.58 41.21,62.02 C43.86,62.46 45.59,62.09 47.52,60.22 C52.48,55.42 62.36,45.72 62.36,45.72 C63.61,44.47 65.63,44.47 66.88,45.72 C69.15,47.99 76.97,55.72 78.6,57.3 C80.64,59.28 82.8,60.46 85.71,60.58 C89.47,60.74 88.16,59.44 87.95,58.87 Z" fill="#FCBF90"/>
</svg>
